workspaces/osm/styles/symbols/shop/hairdresser.svg

<?xml version="1.0" encoding="UTF-8" standalone="no"?>
<!-- Created with Inkscape (http://www.inkscape.org/) -->

<svg
   xmlns:dc="http://purl.org/dc/elements/1.1/"
   xmlns:cc="http://creativecommons.org/ns#"
   xmlns:rdf="http://www.w3.org/1999/02/22-rdf-syntax-ns#"
   xmlns:svg="http://www.w3.org/2000/svg"
   xmlns="http://www.w3.org/2000/svg"
   version="1.1"
   width="14"
   height="14"
   viewBox="0 0 14 14"
   id="svg2">
  <metadata
     id="metadata8">
    <rdf:RDF>
      <cc:Work
         rdf:about="">
        <dc:format>image/svg+xml</dc:format>
        <dc:type
           rdf:resource="http://purl.org/dc/dcmitype/StillImage" />
        <dc:title></dc:title>
      </cc:Work>
    </rdf:RDF>
  </metadata>
  <defs
     id="defs6" />
  <rect
     width="14"
     height="14"
     x="0"
     y="0"
     id="canvas"
     style="fill:none;stroke:none;visibility:hidden" />
  <path
     d="M 4,0 4,9.53125 C 3.580263,9.212414 3.064535,9 2.5,9 1.12521,9 0,10.12521 0,11.5 0,12.87479 1.12521,14 2.5,14 3.702941,14 4.703332,13.136374 4.9375,12 l 0.125,0 C 5.296668,13.136374 6.297059,14 7.5,14 8.87479,14 10,12.87479 10,11.5 10,10.12521 8.87479,9 7.5,9 6.935465,9 6.419737,9.212414 6,9.53125 L 6,0 z m 4,0 0,2 4,0 0,1 -4,0 0,1 4,0 0,1 -4,0 0,1 4,0 0,1 -4,0 0,1 4,0 0,6 2,0 0,-12 C 14,1 13,0 12,0 z M 2.5,10 C 3.334349,10 4,10.665651 4,11.5 4,12.334349 3.334349,13 2.5,13 1.665651,13 1,12.334349 1,11.5 1,10.665651 1.665651,10 2.5,10 z m 5,0 C 8.334349,10 9,10.665651 9,11.5 9,12.334349 8.334349,13 7.5,13 6.665651,13 6,12.334349 6,11.5 6,10.665651 6.665651,10 7.5,10 z"
     id="hairdresser" />
</svg>

<svg width="14" height="14" version="1.1" viewBox="0 0 14 14" xmlns="http://www.w3.org/2000/svg"><rect id="a" width="14" height="14" fill="none" visibility="hidden"/><path id="b" d="m4 0v9.5312c-0.70121-0.56053-1.7113-0.69727-2.5263-0.30949-1.0417 0.45237-1.673 1.6691-1.4227 2.7804 0.21792 1.1513 1.3323 2.0456 2.5052 1.9972 1.1332-0.005549 2.1712-0.89026 2.3813-1.9994 0.27039-0.02281 0.15861 0.45008 0.33382 0.60655 0.46335 0.9755 1.6066 1.5655 2.6697 1.3542 1.1586-0.18909 2.0807-1.2853 2.059-2.4608 0.02172-1.1755-0.90036-2.2717-2.059-2.4608-0.68019-0.13343-1.3985 0.070112-1.941 0.49201v-9.5312h-2zm4 0v2h4v1h-4v1h4v1h-4v1h4v1h-4v1h4v6h2c-0.0019-4.0312 0.0039-8.0626-0.0029-12.094-0.083206-0.96773-0.93565-1.8202-1.9034-1.9034-1.3644-0.0067306-2.7292-9.9174e-4 -4.0937-0.0028992zm-5.5 10c0.80333-0.024441 1.5244 0.69667 1.5 1.5 0.024441 0.80333-0.69667 1.5244-1.5 1.5-0.80333 0.024441-1.5244-0.69667-1.5-1.5-0.018237-0.81083 0.68823-1.5181 1.5-1.5zm5 0c0.80333-0.024441 1.5244 0.69667 1.5 1.5 0.024441 0.80333-0.69667 1.5244-1.5 1.5-0.80333 0.024441-1.5244-0.69667-1.5-1.5-0.018237-0.81083 0.68823-1.5181 1.5-1.5z"/></svg>
